X: 1
T: Arirang
O: trad Korea
R: waltz
Z: 2020 John Chambers <jc:trillian.mit.edu>
S: Rustic Roots collection 2020-5-6
M: 3/4
L: 1/8
K: G
|: "G"D3 E DE | G3 A GA | B2 (3ABA GE | "D"D3 E DE |
|  "G"G3 A GA | "Em"BA GE DE | "C"G3 A G2 | "G"G4 z2 :|
|: "G"d2 d2 d2 | "(D)"(3ded BA GA | "G"B2 (3ABA GE | "D"D3 E DE |
|  "G"G3 A GA | "Em"BA GE DE | "C"G3 A G2 | "G"G4 z2 :|
